webroot/assets/sticky-banner/sticky-banner-breakpoints-mobile-landscape.svg

<svg xmlns="http://www.w3.org/2000/svg" width="588" height="327"><defs><filter id="a" width="588" height="115" x="0" y="212" filterUnits="userSpaceOnUse"><feOffset dy="-3"/><feGaussianBlur result="b" stdDeviation="2"/><feFlood flood-opacity=".102"/><feComposite in2="b" operator="in"/><feComposite in="SourceGraphic"/></filter></defs><g filter="url(#a)"><path fill="#fff" d="M6 221h576v103H6z"/></g><path fill="none" d="M552 237h14v14h-14z"/><path fill="#6a6e73" d="M560.9 244l2.84-2.84a.9.9 0 000-1.27l-.63-.63a.9.9 0 00-1.26 0L559 242.1l-2.84-2.84a.9.9 0 00-1.27 0l-.63.63a.9.9 0 000 1.27l2.84 2.84-2.84 2.84a.9.9 0 000 1.27l.63.63a.9.9 0 001.27 0l2.84-2.84 2.84 2.84a.9.9 0 001.27 0l.63-.63a.9.9 0 000-1.26z"/><g fill="#06c"><path d="M526 266l-1.5 1.5 4.5 4.5h-10v2h10l-4.5 4.5 1.5 1.5 7-7z"/><text font-family="RedHatDisplay-Bold, Red Hat Display" font-size="18" font-weight="700" transform="translate(434 279)"><tspan x="0" y="0">Show me</tspan></text></g><g fill="#151515"><text font-family="RedHatText-Regular, Red Hat Text" font-size="16" transform="translate(56 295)"><tspan x="0" y="0">Learn about hybrid cloud and how to get started.</tspan></text><text font-family="RedHatDisplay-Medium, Red Hat Display" font-size="20" font-weight="500" transform="translate(56 265)"><tspan x="0" y="0">Interested in cloud?</tspan></text></g><g opacity=".03"><path fill="#00f" d="M566 0h16v324h-16z" opacity=".75"/><path fill="red" d="M22 0h544v324H22z" opacity=".75"/><path fill="#00f" d="M6 0h16v324H6z" opacity=".75"/></g></svg>

<svg xmlns="http://www.w3.org/2000/svg" xmlns:xlink="http://www.w3.org/1999/xlink" width="588" height="327" viewBox="0 0 588 327"><defs><style>.a{isolation:isolate;}.b{fill:#fff;}.c{fill:none;}.d{fill:#6a6e73;}.e,.f{fill:#06c;}.f{font-size:18px;font-family:RedHatDisplay-Bold, Red Hat Display;font-weight:700;}.g,.h{fill:#151515;}.g{font-size:16px;font-family:RedHatText-Regular, Red Hat Text;}.h{font-size:20px;font-family:RedHatDisplay-Medium, Red Hat Display;font-weight:500;}.i{opacity:0.03;}.j{fill:blue;}.j,.k{opacity:0.75;}.k{fill:red;}.l{filter:url(#a);}</style><filter id="a" x="0" y="212" width="588" height="115" filterUnits="userSpaceOnUse"><feOffset dy="-3" input="SourceAlpha"/><feGaussianBlur stdDeviation="2" result="b"/><feFlood flood-opacity="0.102"/><feComposite operator="in" in2="b"/><feComposite in="SourceGraphic"/></filter></defs><g class="a"><g class="l" transform="matrix(1, 0, 0, 1, 0, 0)"><path class="b" d="M6,221H582V324H6Z"/></g><path class="c" d="M552,237h14v14H552Z"/><path class="d" d="M560.9,244l2.84-2.84"/><path class="e" d="M526,266l-1.5,1.5L529,272H519v2h10l-4.5,4.5L526,280l7-7Z"/><text class="f" transform="translate(434 279)"><tspan x="0" y="0">Show me</tspan></text><text class="g" transform="translate(56 295)"><tspan x="0" y="0">Learn about hybrid cloud and how to get started.</tspan></text><text class="h" transform="translate(56 265)"><tspan x="0" y="0">Interested in cloud?</tspan></text><g class="i"><path class="j" d="M566,0h16V324H566Z"/><path class="k" d="M22,0H566V324H22Z"/><path class="j" d="M6,0H22V324H6Z"/></g></g></svg>
